X:14
T: Out On The Ocean
R: jig
M: 6/8
L: 1/8
K: Gmaj
|:E | "G"D2B BAG|BdB A2B|"C"GED G2A|"D"~B3 AGE|
      "G"D2B BAG|BdB A2B|"C"GED G2A|"D"BGF "G"G2:|
  B | "Em(G)"~e3 edB|~e3 edB|"D(Bm)"~d3 def|gfe dBA|
"G"G2A "(D)"B2d|"C"~e3 dBA|"G"GED G2A|"D"BGF "G"G2:|

